X:1
T:Just a Little
T:Charles Hutchinson Gabriel
T:Just a Little
T:Public Domain
T:Public Domain
T:Public Domain
C:Charles Hutchinson Gabriel
Z:Public Domain
%%score ( 1 2 ) ( 3 4 )
L:1/8
M:4/4
K:Ab
V:1 treble 
V:2 treble 
V:3 bass 
V:4 bass 
V:1
 [CE]>[CF] [CG]>[CA] [Cc]>[CB] [EA]>[EF] | [DA]>[DG] [DG]>[D^F] [DG]4 | %2
w: 1.~Just a lit- tle kind- ness shown a-|long the wea- ry road;|
w: 2.~Just a lit- tle sa- cri- fice of|ease that we have earned;|
w: 3.~Just a lit- tle plead- ing in the|name of Him Who died;|
 [DE]>[DF] [DG]>[EA] [EB]>[Ec] [Ed]>[Ee] | [Fd]>[Ec] [Ec]>[=D=B] [Ec]4 | %4
w: Just a lit- tle lift- ing of an-|o- ther’s hea- vy load;|
w: Just a lit- tle shar- ing of a|les- son we have learned;|
w: Just a lit- tle ear- nest- ness, like|His, Who is your Guide;|
 [CE]>[CF] [CG]>[CA] [Cc]>[CB] [EA]>[EF] | [=DA]>[DG] [DA]>[DF] [EB]4 | %6
w: Just a lit- tle pi- ty that is|ten- der- ly be- stowed,|
w: Just a lit- tle stir- ring of the|flame that low has burned,|
w: Just a lit- tle long- ing for some-|one lost at your side,|
 [GB]2 [Ac]>[GB] [FA]2 [EG]2 | [=DF]4 E4 ||"^Refrain" [Ec]2 [Ec]2 [Ee]2 [EA]2 | %9
w: May win a soul for|Je- sus.||
w: May win a soul for|Je- sus.|~ ~ ~ ~|
w: May win a soul for|Je- sus.|the name of Him|
 [Gd]>[Fd] [Ed]>[Fd] G>E F>^F | d2 d2 e2 B2 | [Ec]>[Ac] [Gc]>[Fc] E>=D E>F | %12
w: |||
w: ~ ~ ~ ~ Un- to your vow|of ~ ser- vice|true and loy- al? * * * *|
w: Who died for you, ~ ~ ~ To|vow of ser- vice|true? ~ ~ ~ Ne- ver, then, ne-|
 [_Ge]>[Gf] [Ge]>[Gf] [Fd]2 [FA]>[FB] | [=Ec]>[Ed] [Ec]>[EG] [GB]2 [FA]2 | %14
w: ||
w: ||
w: it, For when you least ex- pect|it, You may win a soul|
 [FB]>[FA] [=B,G]>[B,F] [CE]2 [Ec]2 | [DB]4 [CA]4 |] %16
w: ||
w: ||
w: for Je- sus. * * *||
V:2
 x8 | x8 | x8 | x8 | x8 | x8 | x8 | x4 E4 || x8 | x4 d4 | G4 E4 | x4 c4 | x8 | x8 | x8 | x8 |] %16
w: ||||||||||||||||
w: |||||||~||~|are you||||||
w: |||||||In||your|are you|glect|||||
V:3
 [A,,A,]>[A,,A,] [A,,E,]>[A,,E,] [A,,A,]>[A,,A,] [A,,C]>[A,,C] | %1
 [E,B,]>[E,B,] [E,B,]>[E,=A,] [E,B,]4 | [E,G,]>[E,A,] [E,B,]>[E,C] [E,D]>[E,C] [E,B,]>[E,G,] | %3
 A,>A, A,>A, A,4 | [A,,A,]>[A,,A,] [A,,E,]>[A,,E,] [A,,A,]>[A,,A,] [A,C]>[A,C] | %5
 [F,B,]>[F,B,] [F,B,]>[F,A,] [E,G,]4 | [B,,B,]2 [B,,B,]>[B,,B,] [B,,B,]2 [B,,B,]2 | %7
 [B,,A,]4 [E,G,]4 || A,2 A,2 [A,C]2 [A,C]2 | [E,B,]>[E,A,] [E,G,]>[E,A,] [E,B,]4 | %10
 [E,B,]2 [E,B,]2 [E,G,]2 [E,G,]2 | [A,,A,]>[A,,A,] [A,,A,]>[A,,A,] [A,,A,]4 | %12
 [C,A,]>[C,A,] [C,A,]>[C,A,] [D,A,]2 [D,A,]>[D,F,] | [C,G,]>[C,G,] [C,G,]>[C,C] [F,C]2 [F,C]2 | %14
 [D,D]>[D,D] [=D,A,]>[D,A,] [E,A,]2 [E,A,]2 | [E,G,]4 [A,,A,]4 |] %16
V:4
 x8 | x8 | x8 | A,>A, A,>A, A,4 | x8 | x8 | x8 | x8 || A,2 A,2 x4 | x8 | x8 | x8 | x8 | x8 | x8 | %15
 x8 |] %16

